X:1
T:Doherty's Reel
T:Killarney Boys
R:Reel
D:Dervish
Z:Lesl Harker <lmh@RCONS.COM> irtrad-l 2001-6-18
M:4/4
L:1/8
K:Edor
D|:E2FD EzFA|BFAF DEFA|BABd e~e2d|BzAF DEFD|
~E2FD EzFA|BFAF DEFA|BA(3Bcd ezed|~B2AF FEEz:||
|:Be~e2 Be~e2|dBAF DFAd|~f3e fzfe|dBAF DEFz|
Be~e2 Be~e2|dBAF DFAd|~f3e dzBA|1(3Bcd AF FEEz:|2(3Bcd AF FEED|E8||
